X:1
T:Aus der Jugendzeit
T:Robert Radecke
T:Friedrich Rückert
T:Aus der Jugendzeit
T:CPDL - Creative Commons Attribution Non Commercial 3.0
T:CPDL - Creative Commons Attribution Non Commercial 3.0
C:Robert Radecke
Z:Friedrich Rückert
Z:CPDL - Creative Commons Attribution Non Commercial 3.0
%%score [ ( 1 2 ) ( 3 4 ) ]
L:1/8
Q:1/4=80
M:3/4
K:Eb
V:1 treble nm="Sopran\nAlt"
V:2 treble 
V:3 bass nm="Tenor\nBass"
V:4 bass 
V:1
"^Mäßig einfach"!p! GA | GF F2!pp! Bc | BA A2"^cresc." (3GAB | cc!>(! e3!>)! c | B4!p! ed | %5
w: 1.~Aus der|Ju- gend- zeit, aus der|Ju- gend- zeit klingt _ ein|Lied mir im- mer-|dar; o wie|
w: 2.~O du|Hei- mat- flur, o du|Hei- mat- flur! Lass _ zu|dei- nem sel'- gen|Raum mich noch|
w: 3.~Wohl die|Schwal- be kehrt, wohl die|Schwal- be kehrt, und _ der|lee- re Kas- ten|schwoll. Ist das|
 dG G2!pp! cB | BE E2 E!<(!F | G!<)!F A3!>(! G!>)! | E4!p! EF |!<(! GA!<)! G2!>(! cA!>)! | %10
w: liegt so weit, o wie|liegt so weit, was _|mein, was mein einst|war! Was die|Schwal- be sang, was die|
w: ein- mal nur, mich noch|ein- mal nur ent- *|fliehn, entf- liehn im|Traum. Als ich|Ab- schied nahm, als ich|
w: Herz ge- leert, ist das|Herz ge- leert, wird's _|nie, wird's nie mehr|voll. Kei- ne|Schwal- be bringt, kei- ne|
 (3GBA G2!mf! cd | ee | f3 e |!>(! d4!>)! d!<(!d!<)! | f!>(!e B2!>)!!<(! =B!<)!B | %15
w: Schwal- * be sang, die den|Herbst und|Früh- ling|bringt; ob das|Dorf ent- lang, ob das|
w: Ab- * schied nahm, war die|Welt mir|voll so|sehr; als ich|wie- der- kam, als ich|
w: Schwal- * be bringt dir zu-|rück, wo-|nach du|weinst, doch die|Schwal- be singt, doch die|
 dc!>(! F2!p! G2!>)! |1[Q:1/4=76]"^riten." A4 AB | !fermata!G4 :|3[Q:1/4=76]"^rit." A4!pp! D2 | %19
w: Dorf ent- lang das|jetzt noch _|klingt?||
w: wie- der- kam, war|al- les _|leer.||
w: Schwal- be singt im|||Dorf wie|
 !fermata!E4 |] %20
w: |
w: |
w: einst!|
V:2
 EE | DD D2 EE | DD D2 (3:2:2E2 E | EE A3 E | E4 GG | GG G2 EE | EB, B,2 E2 | EE E2 D2 | B,4 EE | %9
w: |||||||||
w: |||||||||
w: |||||||||
 (D2 E2) E2 | (D2 E2) GG | GB | =A2 A2 | B4 FF | (E2 G2) F2 | E4 E2 |1 (E2 C2) D2 | E4 :|3 %18
w: Schwal- * be|sang, _ die den|Herbst und|Früh- ling|bringt; ob das|Dorf _ ent-|lang, *|||
w: Ab- * schied|nahm, _ war die|Welt mir|voll so|sehr; als ich|wie- * der-|kam, *|||
w: Schwal- * be|bringt _ dir zu-|rück, wo-|nach du|weinst, doch die|Schwal- * be|singt *|||
 (E2 C2) B,2 | B,4 |] %20
w: ||
w: ||
w: ||
V:3
!p! B,C | B,B, B,2!pp! B,B, | B,B, B,2"^cresc." (3:2:2B,2 B, | A,A,!>(! C3!>)! A, | G,4!p! CB, | %5
 B,B, B,2!pp! A,G, | G,G, G,2 G,!<(!=A, | B,!<)!A, C3!>(! B,!>)! | G,4!p! G,G, | %9
!<(! G,4!<)!!>(! G,2!>)! | G,4!mf! G,=B, | CC | D3 C |!>(! B,4!>)! B,!<(!B,!<)! | %14
 (B,2!>(! E2)!>)!!<(! D2!<)! | C4!p!!>(! B,2!>)! |1 B,4 F,B, | !fermata!B,4 :|3 B,4!pp! B,A, | %19
 !fermata!G,4 |] %20
V:4
 E,E, | B,A, A,2 G,G, | F,F, F,2 (3E,F,G, | A,A, A,,3 A,, | E,4 C,G,, | G,,G, G,2 A,E, | %6
 E,E, E,2 C,2 | B,,4 B,,2 | E,4 C,C, | (=B,,2 C,2) C,2 | (=B,,2 C,2) E,G, | CC | F,2 F,2 | %13
 B,4 A,A, | G,4 G,2 | A,4 G,2 |1 F,4 B,,2 | E,4 :|3 F,4 B,,2 | E,4 |] %20

